build/svg/cmd/lc_numberformatdecimal.svg

<?xml version="1.0" encoding="UTF-8" standalone="no"?>
<svg
   xmlns:dc="http://purl.org/dc/elements/1.1/"
   xmlns:cc="http://creativecommons.org/ns#"
   xmlns:rdf="http://www.w3.org/1999/02/22-rdf-syntax-ns#"
   xmlns:svg="http://www.w3.org/2000/svg"
   xmlns="http://www.w3.org/2000/svg"
   xmlns:sodipodi="http://sodipodi.sourceforge.net/DTD/sodipodi-0.dtd"
   xmlns:inkscape="http://www.inkscape.org/namespaces/inkscape"
   viewBox="0 0 24 24"
   version="1.1"
   id="svg4"
   sodipodi:docname="lc_numberformatdecimal.svg"
   inkscape:version="0.92.5 (2060ec1f9f, 2020-04-08)"
   inkscape:export-filename="/home/jupiter007/Libreoffice yaru theme fullcolor/build/cmd/lc_numberformatdecimal.png"
   inkscape:export-xdpi="96"
   inkscape:export-ydpi="96">
  <metadata
     id="metadata10">
    <rdf:RDF>
      <cc:Work
         rdf:about="">
        <dc:format>image/svg+xml</dc:format>
        <dc:type
           rdf:resource="http://purl.org/dc/dcmitype/StillImage" />
      </cc:Work>
    </rdf:RDF>
  </metadata>
  <defs
     id="defs8" />
  <sodipodi:namedview
     pagecolor="#ffffff"
     bordercolor="#666666"
     borderopacity="1"
     objecttolerance="10"
     gridtolerance="10"
     guidetolerance="10"
     inkscape:pageopacity="0"
     inkscape:pageshadow="2"
     inkscape:window-width="1920"
     inkscape:window-height="1011"
     id="namedview6"
     showgrid="true"
     inkscape:zoom="19.666667"
     inkscape:cx="-0.72849732"
     inkscape:cy="14.224529"
     inkscape:window-x="0"
     inkscape:window-y="32"
     inkscape:window-maximized="1"
     inkscape:current-layer="svg4">
    <inkscape:grid
       type="xygrid"
       id="grid825" />
  </sodipodi:namedview>
  <path
     sodipodi:nodetypes="cccscsccccccccscscccccc"
     inkscape:connector-curvature="0"
     id="path4237-1"
     d="M 6.994116,2.99971 C 5.735916,3.01421 4.815225,2.969106 4.062475,3.3844756 3.686105,3.5921352 3.389244,3.9438623 3.224584,4.3825223 3.059914,4.8211923 2.999975,5.3421103 2.999975,5.9997107 V 7.4879917 18.00029 c 0,0.65761 0.0599,1.178577 0.224609,1.617188 0.16468,0.438611 0.461531,0.788524 0.837891,0.996093 0.75272,0.41513 1.673541,0.371649 2.931641,0.386719 h 0.002 10.005859 0.0039 c 1.25819,-0.0145 2.178891,0.0306 2.931641,-0.384766 0.37637,-0.20766 0.673221,-0.559386 0.837891,-0.998046 0.164539,-0.438671 0.224618,-0.959578 0.224618,-1.617188 V 7.4665077 5.9997107 c 0,-0.6576004 -0.0599,-1.1785784 -0.224609,-1.6171884 -0.16468,-0.4386 -0.461531,-0.788534 -0.837891,-0.9960935 C 19.184755,2.9712988 18.263924,3.01479 17.005834,2.99971 h -0.002 -10.0058591 z"
     style="font-style:normal;font-variant:normal;font-weight:normal;font-stretch:normal;font-size:15px;line-height:125%;font-family:Ubuntu;-inkscape-font-specification:Ubuntu;text-align:center;letter-spacing:0px;word-spacing:0px;writing-mode:lr-tb;text-anchor:middle;display:inline;opacity:0.6;fill:#000000;fill-opacity:1;stroke:none;stroke-width:0.99980211" />
  <path
     inkscape:connector-curvature="0"
     id="path1993"
     d="m 11.983344,4.0268943 c -1.556581,0.0108 -5.10999,-0.01175 -6.659941,0.03878 -0.461229,0.04267 -1.016188,0.2064199 -1.15534,0.709967 -0.218994,0.635347 -0.108414,1.3337874 -0.145796,1.9819254 -0.0078,2.297084 -0.02297,9.5964243 0.02152,11.8857763 0.0391,0.461929 0.202551,1.012666 0.698756,1.163666 0.632456,0.225082 1.284144,0.12274 1.935974,0.154298 1.424235,0.0068 4.850563,0.01102 6.27642,0.01131 1.704531,3.5e-4 3.408388,-0.005 5.10719,-0.01851 0.511911,-0.01201 1.183699,0.01993 1.584745,-0.405191 0.421097,-0.539783 0.287073,-1.268021 0.322745,-1.903786 0.01187,-2.444323 0.02769,-9.9110923 -0.0219,-12.3567927 -0.04928,-0.40204 -0.169992,-0.862952 -0.575139,-1.044475 -0.668169,-0.294097 -1.426205,-0.168019 -2.125921,-0.205573 -1.754407,-0.0118 -3.508874,-0.01248 -5.263313,-0.01139 z"
     style="opacity:1;vector-effect:none;fill:#a6d74f;fill-opacity:1;stroke:none;stroke-width:1;stroke-linecap:round;stroke-linejoin:bevel;stroke-miterlimit:4;stroke-dasharray:none;stroke-dashoffset:0;stroke-opacity:1"
     sodipodi:nodetypes="cccccccscccccccc" />
  <circle
     style="opacity:1;fill:#4d4d4d;fill-opacity:1;stroke:none;stroke-width:1;stroke-linecap:round;stroke-linejoin:round;stroke-miterlimit:4;stroke-dasharray:none;stroke-opacity:1"
     id="path842"
     cx="12"
     cy="16"
     r="1" />
  <path
     style="opacity:1;fill:#4d4d4d;fill-opacity:1;stroke:none;stroke-width:8.77999973;stroke-linejoin:round;stroke-miterlimit:4;stroke-dasharray:none;stroke-opacity:1"
     d="M 7.5 8 C 6.115 8 5 9.115 5 10.5 L 5 13.5 C 5 14.885 6.115 16 7.5 16 C 8.885 16 10 14.885 10 13.5 L 10 10.5 C 10 9.115 8.885 8 7.5 8 z M 7.5 9 C 8.331 9 9 9.669 9 10.5 L 9 13.5 C 9 14.331 8.331 15 7.5 15 C 6.669 15 6 14.331 6 13.5 L 6 10.5 C 6 9.669 6.669 9 7.5 9 z "
     id="rect820" />
  <path
     id="path825"
     d="M 16.5,8 C 15.115,8 14,9.115 14,10.5 v 3 c 0,1.385 1.115,2.5 2.5,2.5 1.385,0 2.5,-1.115 2.5,-2.5 v -3 C 19,9.115 17.885,8 16.5,8 Z m 0,1 c 0.831,0 1.5,0.669 1.5,1.5 v 3 C 18,14.331 17.331,15 16.5,15 15.669,15 15,14.331 15,13.5 v -3 C 15,9.669 15.669,9 16.5,9 Z"
     style="opacity:1;fill:#4d4d4d;fill-opacity:1;stroke:none;stroke-width:8.77999973;stroke-linejoin:round;stroke-miterlimit:4;stroke-dasharray:none;stroke-opacity:1"
     inkscape:connector-curvature="0" />
</svg>

<svg xmlns="http://www.w3.org/2000/svg" viewBox="0 0 24 24"><path d="M6.994 3c-1.258.014-2.179-.03-2.932.384a1.88 1.88 0 00-.837.999C3.06 4.82 3 5.343 3 6v12c0 .658.06 1.179.225 1.617.164.44.461.789.837.997.753.415 1.674.371 2.932.386h10.012c1.258-.014 2.179.03 2.932-.384a1.88 1.88 0 00.837-.999c.165-.438.225-.96.225-1.617V6c0-.658-.06-1.179-.225-1.617a1.875 1.875 0 00-.837-.997c-.753-.415-1.674-.371-2.932-.386H6.998z" style="line-height:125%;-inkscape-font-specification:Ubuntu;text-align:center" font-weight="400" font-size="15" font-family="Ubuntu" letter-spacing="0" word-spacing="0" text-anchor="middle" opacity=".6"/><path d="M11.983 4.027c-1.556.01-5.11-.012-6.66.039-.46.042-1.016.206-1.155.71-.219.635-.108 1.333-.146 1.982-.008 2.297-.023 9.596.022 11.885.039.462.202 1.013.699 1.164.632.225 1.284.123 1.936.154 1.424.007 4.85.011 6.276.012 1.704 0 3.408-.005 5.107-.019.512-.012 1.184.02 1.585-.405.421-.54.287-1.268.323-1.904.011-2.444.027-9.911-.022-12.357-.05-.402-.17-.863-.575-1.044-.669-.294-1.427-.168-2.126-.206a716.385 716.385 0 00-5.264-.011z" fill="#a6d74f"/><circle cx="12" cy="16" r="1" fill="#4d4d4d"/><path d="M7.5 8A2.495 2.495 0 005 10.5v3C5 14.885 6.115 16 7.5 16s2.5-1.115 2.5-2.5v-3C10 9.115 8.885 8 7.5 8zm0 1c.831 0 1.5.669 1.5 1.5v3c0 .831-.669 1.5-1.5 1.5S6 14.331 6 13.5v-3C6 9.669 6.669 9 7.5 9zM16.5 8a2.495 2.495 0 00-2.5 2.5v3c0 1.385 1.115 2.5 2.5 2.5s2.5-1.115 2.5-2.5v-3C19 9.115 17.885 8 16.5 8zm0 1c.831 0 1.5.669 1.5 1.5v3c0 .831-.669 1.5-1.5 1.5s-1.5-.669-1.5-1.5v-3c0-.831.669-1.5 1.5-1.5z" fill="#4d4d4d"/></svg>
